!!!SOCIAL_FUNCTION:	songs of war
!!!PDT:	1913
!!!OTL: No_28_Song_of_a_War_Charm.krn
!!!REG: Great_Lakes
!!!LANG: Non-Tone
!!!LING_GROUP: Algonquin
**kern	**kern
*staff2	*staff1
*clefF4	*clefF4
*k[b-e-a-d-g-]	*k[b-e-a-d-g-]
*M3/4	*M3/4
4.r	16e-\LL
.	16e-\JJ
.	12e-\L
.	12e-\
.	12e-\J
=1	=1
8GG-/L	8.e-\L
8GG-/J	.
.	16e-\Jk
8GG-/L	8d-\L
8GG-/J	16d-\L
.	16d-\JJ
8GG-/L	12c-\L
.	12d-\
8GG-/J	.
.	12d-\J
=2	=2
2.r	8d-\L
.	24d-\K
.	12d-\J
.	8B-\L
.	16d-\L
.	16d-\JJ
.	12d-\L
.	12d-\
.	12d-\J
=3	=3
2.r	8.d-\L
.	16d-\Jk
.	8d-\L
.	16B-\L
.	16B-\JJ
.	12A-\L
.	12A-\
.	12A-\J
=4	=4
2.r	8.A-\L
.	16A-\Jk
.	8A-\L
.	16E-\L
.	16E-\JJ
.	16E-\LL
.	16E-\
.	16E-\
.	16E-\JJ
=5	=5
2.r	8.E-\L
.	16E-\Jk
.	8E-\L
.	16D-\L
.	16D-\JJ
.	12BB-\L
.	12D-\
.	12D-\J
=6	=6
2.r	8D-\L
.	24D-\K
.	12D-\J
.	8BB-\L
.	16D-\L
.	16D-\JJ
.	12D-\L
.	12D-\
.	12D-\J
=7	=7
2.r	8.D-\L
.	16D-\Jk
.	8D-/L
.	16BB-/L
.	16BB-/JJ
.	12AA-/L
.	12AA-/
.	12AA-/J
=8	=8
*M2/4	*M2/4
2r	4AA-/
.	4AA-/
==	==
*-	*-
